!!!SOCIAL_FUNCTION:	bird dance songs
!!!PDT:	1956
!!!OTL: No_147_Fox_Dance_Song_(b).krn
!!!LANG: Non-Tone
!!!LING_GROUP: Muskogean
!!!REG: Florida
**kern
*staff1
=1-
*clefF4
*k[f#]
*M3/4
2r
8.r
16D\
=2!|:
8D\L
16A\L
16A\JJ
4A\
4A\
=3||
*M7/8
8G\L
16D\L
16D\JJ
4D\
8D\L
16.D\L
32A\L
32A\
32A\J
16G\JJ
=4||
*M2/4
8D\L
8D\J
4D\
=5
8G\L
16D\L
16D\JJ
4D\
=6
4BB/
8.D\L
16E\Jk
=7
8E\L
16D\L
16D\JJ
4D\
=8
8D\L
8D\J
8D\L
8E\J
=9:|!
8D\L
8D\J
4D\
==
*-
